images/edad.svg

<?xml version="1.0" encoding="utf-8"?>
<!-- Generator: Adobe Illustrator 17.0.0, SVG Export Plug-In . SVG Version: 6.00 Build 0)  -->
<!DOCTYPE svg PUBLIC "-//W3C//DTD SVG 1.1//EN" "http://www.w3.org/Graphics/SVG/1.1/DTD/svg11.dtd">
<svg version="1.1" id="Capa_1" xmlns="http://www.w3.org/2000/svg" xmlns:xlink="http://www.w3.org/1999/xlink" x="0px" y="0px"
	 width="595px" height="643px" viewBox="-47.5 -65.5 595 643" enable-background="new -47.5 -65.5 595 643" xml:space="preserve">
<g id="_x23_e2e2e2ff">
	<path fill="#E2E2E2" d="M182.05,355.25c3.63,0.19,7.28,0.19,10.91-0.01c0.06,44.27-0.08,88.55,0.07,132.83
		c-0.14,12.64,10.94,23.73,23.53,23.93h-58.13c8.78-0.3,17.23-5.49,21.06-13.46c3.35-6.3,2.45-13.64,2.57-20.51
		C182.06,437.1,182.08,396.17,182.05,355.25z"/>
</g>
<g id="_x23_000000ff">
	<path d="M185.7,0h3.68c11.25,0.47,22.44,3.59,32.05,9.53c13,7.89,23.15,20.43,27.96,34.88c5.42,15.89,4.38,33.89-2.89,49.03
		c-6.06,12.82-16.47,23.5-29.07,30c-14.09,7.31-30.9,9.14-46.27,5.15c-17.52-4.4-32.88-16.58-41.29-32.56
		c-6.91-12.78-9.2-27.93-6.63-42.2c2.67-15.59,11.4-29.96,23.8-39.73C157.95,5.35,171.76,0.51,185.7,0z"/>
	<path d="M137.01,159.89c11.86-9.61,25.96-16.44,40.91-19.55c17.14-3.06,34.38,3.16,48.99,11.76
		c28.07,17.16,46.74,46.31,57.19,76.94c8.09,22.8,11.89,46.86,13.91,70.89c0.65,7.84-3.66,15.79-10.58,19.52
		c-7.14,4.06-16.63,3.32-22.96-1.93c-5.05-3.88-7.65-10.12-7.98-16.37c-1.84-22.01-5.76-43.99-13.65-64.69
		c-0.09,21.53,0.06,43.05-0.08,64.58c0.09,4.7-1.31,9.25-1.42,13.93c0.01,57.01,0,114.02,0.01,171.03
		c0.1,5.27-1.04,10.67-4.05,15.07c-4.27,6.65-11.92,10.67-19.76,10.93h-0.98c-12.59-0.2-23.67-11.29-23.53-23.93
		c-0.15-44.28-0.01-88.56-0.07-132.83c-3.63,0.2-7.28,0.2-10.91,0.01c0.03,40.92,0.01,81.85,0.01,122.78
		c-0.12,6.87,0.78,14.21-2.57,20.51c-3.83,7.97-12.28,13.16-21.06,13.46h-0.99c-5.86-0.32-11.72-2.42-15.99-6.53
		c-5.14-4.66-7.83-11.62-7.75-18.51c-0.02-57.32-0.02-114.65-0.01-171.98c-0.13-4.68-1.5-9.24-1.42-13.95
		c-0.14-21.51,0.01-43.03-0.07-64.54c-7.76,20.34-11.73,41.94-13.54,63.59c-0.34,6.1-2.25,12.42-7.03,16.53
		c-5.82,5.49-14.91,7.02-22.21,3.73c-7.55-3.15-12.74-11.18-12.43-19.37c1.85-24.71,5.94-49.42,14.25-72.83
		C100.36,202.05,115.19,177.27,137.01,159.89z"/>
	<path d="M359.54,225.79c11.11-2.05,23.07,0.66,31.96,7.7c8.88,6.74,14.73,17.38,15.47,28.52c0.97,10.79-2.77,21.9-10.05,29.92
		c-6.82,7.68-16.71,12.63-26.98,13.25c-12.22,1.04-24.72-4.07-32.82-13.25c-7.77-8.53-11.41-20.61-9.81-32.03
		C329.22,243.13,342.97,228.78,359.54,225.79z"/>
	<path d="M331.91,326.84c8.48-7.55,18.66-13.58,29.95-15.58c11.29-1.75,22.51,2.83,31.75,8.99c14.49,9.49,24.51,24.46,30.86,40.33
		c5.64,14.17,8.68,29.25,10.11,44.4c1.16,5.4,0.4,11.74-4.32,15.25c-5.17,4.79-14.24,3.33-18.14-2.36
		c-2.51-3.38-2.62-7.8-3.11-11.81c-1.03-12.08-3.82-23.95-7.77-35.39c-0.65,12.1,0.61,24.28-1.05,36.32
		c-0.09,28.32,0.01,56.64-0.04,84.97c0.23,6.43-4.03,12.75-10.22,14.67c-6.29,2.21-13.82-0.52-17.27-6.21
		c-1.83-2.76-2.32-6.15-2.29-9.4c0.01-19.41,0-38.83,0-58.25c-2.24,0.07-4.48,0.07-6.72,0.01c-0.02,20,0.06,40.01-0.03,60.01
		c0.06,7.43-6.24,14.09-13.63,14.55c-8.12,0.89-16-6.07-16.03-14.26c-0.17-28.73,0.05-57.46-0.1-86.19
		c-1.63-12.07-0.43-24.27-1-36.4c-4.04,11.45-6.79,23.36-7.83,35.47c-0.42,3.59-0.57,7.38-2.27,10.65
		c-2.83,5.27-9.74,7.87-15.34,5.82c-4.93-1.94-8.7-7.04-8.39-12.43c0.87-11.79,2.63-23.53,5.72-34.96
		C309.63,357.11,318.12,339.62,331.91,326.84z"/>
</g>
</svg>

<?xml version="1.0" encoding="UTF-8" ?>
<!DOCTYPE svg PUBLIC "-//W3C//DTD SVG 1.1//EN" "http://www.w3.org/Graphics/SVG/1.1/DTD/svg11.dtd">
<svg width="512pt" height="512pt" viewBox="0 0 512 512" version="1.1" xmlns="http://www.w3.org/2000/svg">
<g id="#e2e2e2ff">
<path fill="#e2e2e2" opacity="1.00" d=" M 182.05 355.25 C 185.68 355.44 189.33 355.44 192.96 355.24 C 193.02 399.51 192.88 443.79 193.03 488.07 C 192.89 500.71 203.97 511.80 216.56 512.00 L 158.43 512.00 C 167.21 511.70 175.66 506.51 179.49 498.54 C 182.84 492.24 181.94 484.90 182.06 478.03 C 182.06 437.10 182.08 396.17 182.05 355.25 Z" />
</g>
<g id="#000000ff">
<path fill="#000000" opacity="1.00" d=" M 185.70 0.00 L 189.38 0.00 C 200.63 0.47 211.82 3.59 221.43 9.53 C 234.43 17.42 244.58 29.96 249.39 44.41 C 254.81 60.30 253.77 78.30 246.50 93.44 C 240.44 106.26 230.03 116.94 217.43 123.44 C 203.34 130.75 186.53 132.58 171.16 128.59 C 153.64 124.19 138.28 112.01 129.87 96.03 C 122.96 83.25 120.67 68.10 123.24 53.83 C 125.91 38.24 134.64 23.87 147.04 14.10 C 157.95 5.35 171.76 0.51 185.70 0.00 Z" />
<path fill="#000000" opacity="1.00" d=" M 137.01 159.89 C 148.87 150.28 162.97 143.45 177.92 140.34 C 195.06 137.28 212.30 143.50 226.91 152.10 C 254.98 169.26 273.65 198.41 284.10 229.04 C 292.19 251.84 295.99 275.90 298.01 299.93 C 298.66 307.77 294.35 315.72 287.43 319.45 C 280.29 323.51 270.80 322.77 264.47 317.52 C 259.42 313.64 256.82 307.40 256.49 301.15 C 254.65 279.14 250.73 257.16 242.84 236.46 C 242.75 257.99 242.90 279.51 242.76 301.04 C 242.85 305.74 241.45 310.29 241.34 314.97 C 241.35 371.98 241.34 428.99 241.35 486.00 C 241.45 491.27 240.31 496.67 237.30 501.07 C 233.03 507.72 225.38 511.74 217.54 512.00 L 216.56 512.00 C 203.97 511.80 192.89 500.71 193.03 488.07 C 192.88 443.79 193.02 399.51 192.96 355.24 C 189.33 355.44 185.68 355.44 182.05 355.25 C 182.08 396.17 182.06 437.10 182.06 478.03 C 181.94 484.90 182.84 492.24 179.49 498.54 C 175.66 506.51 167.21 511.70 158.43 512.00 L 157.44 512.00 C 151.58 511.68 145.72 509.58 141.45 505.47 C 136.31 500.81 133.62 493.85 133.70 486.96 C 133.68 429.64 133.68 372.31 133.69 314.98 C 133.56 310.30 132.19 305.74 132.27 301.03 C 132.13 279.52 132.28 258.00 132.20 236.49 C 124.44 256.83 120.47 278.43 118.66 300.08 C 118.32 306.18 116.41 312.50 111.63 316.61 C 105.81 322.10 96.72 323.63 89.42 320.34 C 81.87 317.19 76.68 309.16 76.99 300.97 C 78.84 276.26 82.93 251.55 91.24 228.14 C 100.36 202.05 115.19 177.27 137.01 159.89 Z" />
<path fill="#000000" opacity="1.00" d=" M 359.54 225.79 C 370.65 223.74 382.61 226.45 391.50 233.49 C 400.38 240.23 406.23 250.87 406.97 262.01 C 407.94 272.80 404.20 283.91 396.92 291.93 C 390.10 299.61 380.21 304.56 369.94 305.18 C 357.72 306.22 345.22 301.11 337.12 291.93 C 329.35 283.40 325.71 271.32 327.31 259.90 C 329.22 243.13 342.97 228.78 359.54 225.79 Z" />
<path fill="#000000" opacity="1.00" d=" M 331.91 326.84 C 340.39 319.29 350.57 313.26 361.86 311.26 C 373.15 309.51 384.37 314.09 393.61 320.25 C 408.10 329.74 418.12 344.71 424.47 360.58 C 430.11 374.75 433.15 389.83 434.58 404.98 C 435.74 410.38 434.98 416.72 430.26 420.23 C 425.09 425.02 416.02 423.56 412.12 417.87 C 409.61 414.49 409.50 410.07 409.01 406.06 C 407.98 393.98 405.19 382.11 401.24 370.67 C 400.59 382.77 401.85 394.95 400.19 406.99 C 400.10 435.31 400.20 463.63 400.15 491.96 C 400.38 498.39 396.12 504.71 389.93 506.63 C 383.64 508.84 376.11 506.11 372.66 500.42 C 370.83 497.66 370.34 494.27 370.37 491.02 C 370.38 471.61 370.37 452.19 370.37 432.77 C 368.13 432.84 365.89 432.84 363.65 432.78 C 363.63 452.78 363.71 472.79 363.62 492.79 C 363.68 500.22 357.38 506.88 349.99 507.34 C 341.87 508.23 333.99 501.27 333.96 493.08 C 333.79 464.35 334.01 435.62 333.86 406.89 C 332.23 394.82 333.43 382.62 332.86 370.49 C 328.82 381.94 326.07 393.85 325.03 405.96 C 324.61 409.55 324.46 413.34 322.76 416.61 C 319.93 421.88 313.02 424.48 307.42 422.43 C 302.49 420.49 298.72 415.39 299.03 410.00 C 299.90 398.21 301.66 386.47 304.75 375.04 C 309.63 357.11 318.12 339.62 331.91 326.84 Z" />
</g>
</svg>
